symbols/web/border_inner/materialsymbolsrounded/border_inner_wght500gradN25_24px.svg

<svg xmlns="http://www.w3.org/2000/svg" height="24" width="24"><path d="M3.075 20.925V18.85H5.15v2.075Zm8.95 0q-.45 0-.75-.3t-.3-.75v-6.85h-6.85q-.45 0-.75-.3t-.3-.75q0-.425.3-.725t.75-.3h6.85V4.1q0-.425.3-.725t.75-.3q.425 0 .725.3t.3.725v6.85h6.85q.425 0 .725.3t.3.725q0 .45-.3.75t-.725.3h-6.85v6.85q0 .45-.3.75t-.725.3Zm-8.95-3.95V14.9H5.15v2.075Zm0-7.875V7.025H5.15V9.1Zm0-3.95V3.075H5.15V5.15Zm3.95 15.775V18.85H9.1v2.075Zm0-15.775V3.075H9.1V5.15ZM14.9 20.925V18.85h2.075v2.075Zm0-15.775V3.075h2.075V5.15Zm3.95 15.775V18.85h2.075v2.075Zm0-3.95V14.9h2.075v2.075Zm0-7.875V7.025h2.075V9.1Zm0-3.95V3.075h2.075V5.15Z"/></svg>

<svg xmlns="http://www.w3.org/2000/svg" height="24" width="24"><path d="M3.075 20.925V18.85H5.15V20.925ZM12.025 20.925Q11.575 20.925 11.275 20.625Q10.975 20.325 10.975 19.875V13.025H4.125Q3.675 13.025 3.375 12.725Q3.075 12.425 3.075 11.975Q3.075 11.55 3.375 11.25Q3.675 10.95 4.125 10.95H10.975V4.1Q10.975 3.675 11.275 3.375Q11.575 3.075 12.025 3.075Q12.45 3.075 12.75 3.375Q13.05 3.675 13.05 4.1V10.95H19.9Q20.325 10.95 20.625 11.25Q20.925 11.55 20.925 11.975Q20.925 12.425 20.625 12.725Q20.325 13.025 19.9 13.025H13.05V19.875Q13.05 20.325 12.75 20.625Q12.45 20.925 12.025 20.925ZM3.075 16.975V14.9H5.15V16.975ZM3.075 9.1V7.025H5.15V9.1ZM3.075 5.15V3.075H5.15V5.15ZM7.025 20.925V18.85H9.1V20.925ZM7.025 5.15V3.075H9.1V5.15ZM14.9 20.925V18.85H16.975V20.925ZM14.9 5.15V3.075H16.975V5.15ZM18.85 20.925V18.85H20.925V20.925ZM18.85 16.975V14.9H20.925V16.975ZM18.85 9.1V7.025H20.925V9.1ZM18.85 5.15V3.075H20.925V5.15Z"/></svg>
